X: 41877
T: Vladimir's Steamboat
R: reel
M: 4/4
K: Amajor
Acde dcAc|dedc AGEA-|Acde dcAF|GFGB AABA-|
Acde dcAc|dega gedg|edce dcAF|~G3B A4:|
a2e2 a2a2-|aega bagf|efed cdef|gaag e3e|
a2e2 a2a2-|aega bagf|efed cdef|ecdB A2ce|
a2e2 a2a2-|aega bagf|efed cdef|gaag e3a-|
abag egab|aega bagf|efed cdef|ecdB A4||

